documentation/public/assets/images/markdown.svg

<svg width="62" height="71" viewBox="0 0 62 71" fill="none" xmlns="http://www.w3.org/2000/svg">
<g clip-path="url(#clip0_821_53936)">
<path d="M48.9713 1.00977H13.029C11.9138 1.00977 11.0098 1.91381 11.0098 3.029V22.8175C11.0098 23.9326 11.9138 24.8367 13.029 24.8367H48.9713C50.0865 24.8367 50.9905 23.9326 50.9905 22.8175V3.029C50.9905 1.91381 50.0865 1.00977 48.9713 1.00977Z" stroke="black" stroke-width="2.01923"/>
<path d="M16.0576 19.7884V6.05762H20.0961L24.1345 11.1057L28.173 6.05762H32.2115V19.7884H28.173V11.9134L24.1345 16.9615L20.0961 11.9134V19.7884H16.0576ZM41.298 19.7884L35.2403 13.1249H39.2788V6.05762H43.3172V13.1249H47.3557L41.298 19.7884Z" fill="black"/>
</g>
<path d="M4.87216 46.4614L6.54261 36.2796H7.53693L5.86648 46.4614H4.87216ZM0.238636 43.6376L0.397727 42.6432H7.99432L7.83523 43.6376H0.238636ZM1.29261 46.4614L2.96307 36.2796H3.95739L2.28693 46.4614H1.29261ZM0.835227 40.0978L0.994318 39.1035H8.59091L8.43182 40.0978H0.835227ZM14.0025 46.4614V36.2796H15.2354V40.8137H20.6644V36.2796H21.8974V46.4614H20.6644V41.9074H15.2354V46.4614H14.0025ZM27.4084 46.6205C26.6726 46.6205 26.0379 46.4581 25.5043 46.1333C24.974 45.8052 24.5646 45.3478 24.2763 44.7611C23.9912 44.1712 23.8487 43.4851 23.8487 42.7029C23.8487 41.9207 23.9912 41.2313 24.2763 40.6347C24.5646 40.0348 24.9657 39.5675 25.4794 39.2327C25.9964 38.8947 26.5997 38.7256 27.2891 38.7256C27.6868 38.7256 28.0795 38.7919 28.4673 38.9245C28.8551 39.0571 29.2081 39.2725 29.5263 39.5708C29.8445 39.8658 30.098 40.2569 30.2869 40.7441C30.4759 41.2313 30.5703 41.8312 30.5703 42.5438V43.041H24.6839V42.0268H29.3771C29.3771 41.5959 29.291 41.2114 29.1186 40.8734C28.9496 40.5353 28.7076 40.2685 28.3928 40.0729C28.0812 39.8774 27.7133 39.7796 27.2891 39.7796C26.8217 39.7796 26.4174 39.8956 26.076 40.1276C25.7379 40.3563 25.4777 40.6546 25.2955 41.0225C25.1132 41.3904 25.022 41.7848 25.022 42.2057V42.8819C25.022 43.4586 25.1214 43.9475 25.3203 44.3485C25.5225 44.7462 25.8026 45.0495 26.1605 45.2583C26.5185 45.4638 26.9344 45.5665 27.4084 45.5665C27.7166 45.5665 27.995 45.5235 28.2436 45.4373C28.4955 45.3478 28.7126 45.2152 28.8949 45.0396C29.0772 44.8606 29.218 44.6385 29.3175 44.3734L30.451 44.6915C30.3317 45.076 30.1312 45.4141 29.8494 45.7057C29.5677 45.9941 29.2197 46.2195 28.8054 46.3819C28.3911 46.541 27.9254 46.6205 27.4084 46.6205ZM34.6023 46.6404C34.1184 46.6404 33.6792 46.5493 33.2848 46.367C32.8904 46.1814 32.5772 45.9146 32.3452 45.5665C32.1132 45.2152 31.9972 44.791 31.9972 44.2938C31.9972 43.8563 32.0833 43.5017 32.2557 43.2299C32.428 42.9548 32.6584 42.7394 32.9467 42.5836C33.2351 42.4278 33.5533 42.3118 33.9013 42.2356C34.2526 42.156 34.6056 42.0931 34.9602 42.0467C35.4242 41.987 35.8004 41.9422 36.0888 41.9124C36.3804 41.8793 36.5926 41.8246 36.7251 41.7484C36.861 41.6721 36.929 41.5396 36.929 41.3506V41.3109C36.929 40.8203 36.7947 40.4392 36.5263 40.1674C36.2611 39.8956 35.8584 39.7597 35.3182 39.7597C34.758 39.7597 34.3189 39.8824 34.0007 40.1276C33.6825 40.3729 33.4588 40.6347 33.3295 40.9131L32.2159 40.5154C32.4148 40.0514 32.6799 39.6901 33.0114 39.4316C33.3461 39.1698 33.7107 38.9875 34.1051 38.8847C34.5028 38.7787 34.8939 38.7256 35.2784 38.7256C35.5237 38.7256 35.8054 38.7555 36.1236 38.8151C36.4451 38.8715 36.755 38.9891 37.0533 39.1681C37.3549 39.3471 37.6051 39.6172 37.804 39.9785C38.0028 40.3397 38.1023 40.8236 38.1023 41.4302V46.4614H36.929V45.4273H36.8693C36.7898 45.5931 36.6572 45.7704 36.4716 45.9593C36.286 46.1482 36.0391 46.309 35.7308 46.4415C35.4226 46.5741 35.0464 46.6404 34.6023 46.6404ZM34.7812 45.5864C35.2453 45.5864 35.6364 45.4953 35.9545 45.313C36.276 45.1307 36.518 44.8954 36.6804 44.607C36.8461 44.3187 36.929 44.0154 36.929 43.6972V42.6234C36.8793 42.683 36.7699 42.7377 36.6009 42.7874C36.4351 42.8338 36.2429 42.8753 36.0241 42.9117C35.8087 42.9449 35.5982 42.9747 35.3928 43.0012C35.1906 43.0244 35.0265 43.0443 34.9006 43.0609C34.5956 43.1006 34.3106 43.1653 34.0455 43.2547C33.7836 43.3409 33.5715 43.4718 33.4091 43.6475C33.25 43.8199 33.1705 44.0552 33.1705 44.3535C33.1705 44.7611 33.3213 45.0694 33.6229 45.2782C33.9278 45.4837 34.3139 45.5864 34.7812 45.5864ZM43.1273 46.6205C42.4909 46.6205 41.9292 46.4598 41.4419 46.1383C40.9547 45.8135 40.5736 45.3561 40.2985 44.7661C40.0234 44.1728 39.8858 43.4718 39.8858 42.6631C39.8858 41.861 40.0234 41.165 40.2985 40.5751C40.5736 39.9851 40.9564 39.5294 41.4469 39.2079C41.9374 38.8864 42.5042 38.7256 43.1472 38.7256C43.6444 38.7256 44.0371 38.8085 44.3255 38.9742C44.6171 39.1366 44.8392 39.3222 44.9917 39.531C45.1474 39.7365 45.2684 39.9056 45.3546 40.0381H45.454V36.2796H46.6273V46.4614H45.4938V45.2881H45.3546C45.2684 45.4273 45.1458 45.603 44.9867 45.8151C44.8276 46.0239 44.6006 46.2112 44.3056 46.3769C44.0106 46.5393 43.6178 46.6205 43.1273 46.6205ZM43.2864 45.5665C43.757 45.5665 44.1548 45.4439 44.4796 45.1986C44.8044 44.9501 45.0513 44.607 45.2203 44.1695C45.3894 43.7287 45.4739 43.2199 45.4739 42.6432C45.4739 42.0732 45.391 41.5744 45.2253 41.1468C45.0596 40.7159 44.8143 40.3812 44.4895 40.1425C44.1647 39.9006 43.7637 39.7796 43.2864 39.7796C42.7892 39.7796 42.3749 39.9072 42.0435 40.1624C41.7154 40.4143 41.4685 40.7574 41.3027 41.1915C41.1403 41.6224 41.0591 42.1063 41.0591 42.6432C41.0591 43.1868 41.142 43.6806 41.3077 44.1248C41.4767 44.5656 41.7253 44.9169 42.0534 45.1788C42.3849 45.4373 42.7959 45.5665 43.2864 45.5665ZM52.1408 46.6205C51.405 46.6205 50.7703 46.4581 50.2367 46.1333C49.7064 45.8052 49.2971 45.3478 49.0087 44.7611C48.7237 44.1712 48.5811 43.4851 48.5811 42.7029C48.5811 41.9207 48.7237 41.2313 49.0087 40.6347C49.2971 40.0348 49.6981 39.5675 50.2118 39.2327C50.7289 38.8947 51.3321 38.7256 52.0215 38.7256C52.4192 38.7256 52.812 38.7919 53.1998 38.9245C53.5875 39.0571 53.9405 39.2725 54.2587 39.5708C54.5769 39.8658 54.8304 40.2569 55.0194 40.7441C55.2083 41.2313 55.3027 41.8312 55.3027 42.5438V43.041H49.4164V42.0268H54.1096C54.1096 41.5959 54.0234 41.2114 53.851 40.8734C53.682 40.5353 53.44 40.2685 53.1252 40.0729C52.8136 39.8774 52.4457 39.7796 52.0215 39.7796C51.5542 39.7796 51.1498 39.8956 50.8084 40.1276C50.4703 40.3563 50.2102 40.6546 50.0279 41.0225C49.8456 41.3904 49.7544 41.7848 49.7544 42.2057V42.8819C49.7544 43.4586 49.8539 43.9475 50.0527 44.3485C50.2549 44.7462 50.535 45.0495 50.8929 45.2583C51.2509 45.4638 51.6668 45.5665 52.1408 45.5665C52.449 45.5665 52.7275 45.5235 52.976 45.4373C53.2279 45.3478 53.445 45.2152 53.6273 45.0396C53.8096 44.8606 53.9505 44.6385 54.0499 44.3734L55.1834 44.6915C55.0641 45.076 54.8636 45.4141 54.5819 45.7057C54.3001 45.9941 53.9521 46.2195 53.5378 46.3819C53.1235 46.541 52.6578 46.6205 52.1408 46.6205ZM57.0875 46.4614V38.8251H58.2211V39.9785H58.3006C58.4398 39.6006 58.6917 39.294 59.0563 39.0587C59.4209 38.8234 59.8319 38.7057 60.2892 38.7057C60.3754 38.7057 60.4831 38.7074 60.6124 38.7107C60.7417 38.714 60.8394 38.719 60.9057 38.7256V39.9188C60.8659 39.9089 60.7748 39.894 60.6323 39.8741C60.4931 39.8509 60.3456 39.8393 60.1898 39.8393C59.8186 39.8393 59.4872 39.9172 59.1955 40.0729C58.9071 40.2254 58.6784 40.4375 58.5094 40.7093C58.3437 40.9778 58.2608 41.2843 58.2608 41.629V46.4614H57.0875ZM3.02273 66.0069L3.10227 63.8194L1.25284 64.9927L0.775568 64.1574L2.72443 63.1432L0.775568 62.129L1.25284 61.2938L3.10227 62.4671L3.02273 60.2796H3.97727L3.89773 62.4671L5.74716 61.2938L6.22443 62.129L4.27557 63.1432L6.22443 64.1574L5.74716 64.9927L3.89773 63.8194L3.97727 66.0069H3.02273ZM10.0227 66.0069L10.1023 63.8194L8.25284 64.9927L7.77557 64.1574L9.72443 63.1432L7.77557 62.129L8.25284 61.2938L10.1023 62.4671L10.0227 60.2796H10.9773L10.8977 62.4671L12.7472 61.2938L13.2244 62.129L11.2756 63.1432L13.2244 64.1574L12.7472 64.9927L10.8977 63.8194L10.9773 66.0069H10.0227ZM15.233 70.4614V60.2796H16.4062V64.0381H16.5057C16.5919 63.9056 16.7112 63.7365 16.8636 63.531C17.0194 63.3222 17.2415 63.1366 17.5298 62.9742C17.8215 62.8085 18.2159 62.7256 18.7131 62.7256C19.3561 62.7256 19.9228 62.8864 20.4134 63.2079C20.9039 63.5294 21.2867 63.9851 21.5618 64.5751C21.8369 65.165 21.9744 65.861 21.9744 66.6631C21.9744 67.4718 21.8369 68.1728 21.5618 68.7661C21.2867 69.3561 20.9055 69.8135 20.4183 70.1383C19.9311 70.4598 19.3693 70.6205 18.733 70.6205C18.2424 70.6205 17.8497 70.5393 17.5547 70.3769C17.2597 70.2112 17.0327 70.0239 16.8736 69.8151C16.7145 69.603 16.5919 69.4273 16.5057 69.2881H16.3665V70.4614H15.233ZM16.3864 66.6432C16.3864 67.2199 16.4709 67.7287 16.6399 68.1695C16.8089 68.607 17.0559 68.9501 17.3807 69.1986C17.7055 69.4439 18.1032 69.5665 18.5739 69.5665C19.0644 69.5665 19.4737 69.4373 19.8018 69.1788C20.1333 68.9169 20.3819 68.5656 20.5476 68.1248C20.7166 67.6806 20.8011 67.1868 20.8011 66.6432C20.8011 66.1063 20.7183 65.6224 20.5526 65.1915C20.3902 64.7574 20.1432 64.4143 19.8118 64.1624C19.4837 63.9072 19.071 63.7796 18.5739 63.7796C18.0966 63.7796 17.6955 63.9006 17.3707 64.1425C17.0459 64.3812 16.8007 64.7159 16.6349 65.1468C16.4692 65.5744 16.3864 66.0732 16.3864 66.6432ZM26.8714 70.6205C26.1821 70.6205 25.5772 70.4565 25.0568 70.1283C24.5398 69.8002 24.1354 69.3412 23.8438 68.7512C23.5554 68.1612 23.4112 67.4718 23.4112 66.683C23.4112 65.8876 23.5554 65.1932 23.8438 64.5999C24.1354 64.0066 24.5398 63.5459 25.0568 63.2178C25.5772 62.8897 26.1821 62.7256 26.8714 62.7256C27.5608 62.7256 28.1641 62.8897 28.6811 63.2178C29.2015 63.5459 29.6058 64.0066 29.8942 64.5999C30.1858 65.1932 30.3317 65.8876 30.3317 66.683C30.3317 67.4718 30.1858 68.1612 29.8942 68.7512C29.6058 69.3412 29.2015 69.8002 28.6811 70.1283C28.1641 70.4565 27.5608 70.6205 26.8714 70.6205ZM26.8714 69.5665C27.3951 69.5665 27.826 69.4323 28.1641 69.1638C28.5021 68.8954 28.7524 68.5424 28.9148 68.1049C29.0772 67.6674 29.1584 67.1934 29.1584 66.683C29.1584 66.1726 29.0772 65.697 28.9148 65.2562C28.7524 64.8154 28.5021 64.4591 28.1641 64.1873C27.826 63.9155 27.3951 63.7796 26.8714 63.7796C26.3478 63.7796 25.9169 63.9155 25.5788 64.1873C25.2408 64.4591 24.9905 64.8154 24.8281 65.2562C24.6657 65.697 24.5845 66.1726 24.5845 66.683C24.5845 67.1934 24.6657 67.6674 24.8281 68.1049C24.9905 68.5424 25.2408 68.8954 25.5788 69.1638C25.9169 69.4323 26.3478 69.5665 26.8714 69.5665ZM32.1227 60.2796H33.296V68.4728C33.296 68.844 33.3374 69.1042 33.4203 69.2533C33.5031 69.4025 33.6738 69.4737 33.9324 69.4671C34.0716 69.4605 34.1743 69.4505 34.2406 69.4373C34.3102 69.4207 34.3732 69.4041 34.4295 69.3876L34.6681 70.4018C34.5654 70.4316 34.4361 70.4581 34.2804 70.4813C34.1246 70.5078 33.9622 70.5211 33.7931 70.5211C33.2363 70.5211 32.8187 70.3686 32.5403 70.0637C32.2619 69.7588 32.1227 69.3345 32.1227 68.791V60.2796ZM38.6293 70.6205C37.9929 70.6205 37.4311 70.4598 36.9439 70.1383C36.4567 69.8135 36.0755 69.3561 35.8004 68.7661C35.5253 68.1728 35.3878 67.4718 35.3878 66.6631C35.3878 65.861 35.5253 65.165 35.8004 64.5751C36.0755 63.9851 36.4583 63.5294 36.9489 63.2079C37.4394 62.8864 38.0062 62.7256 38.6491 62.7256C39.1463 62.7256 39.5391 62.8085 39.8274 62.9742C40.1191 63.1366 40.3411 63.3222 40.4936 63.531C40.6494 63.7365 40.7704 63.9056 40.8565 64.0381H40.956V60.2796H42.1293V70.4614H40.9957V69.2881H40.8565C40.7704 69.4273 40.6477 69.603 40.4886 69.8151C40.3295 70.0239 40.1025 70.2112 39.8075 70.3769C39.5125 70.5393 39.1198 70.6205 38.6293 70.6205ZM38.7884 69.5665C39.259 69.5665 39.6567 69.4439 39.9815 69.1986C40.3063 68.9501 40.5533 68.607 40.7223 68.1695C40.8913 67.7287 40.9759 67.2199 40.9759 66.6432C40.9759 66.0732 40.893 65.5744 40.7273 65.1468C40.5616 64.7159 40.3163 64.3812 39.9915 64.1425C39.6667 63.9006 39.2656 63.7796 38.7884 63.7796C38.2912 63.7796 37.8769 63.9072 37.5455 64.1624C37.2173 64.4143 36.9704 64.7574 36.8047 65.1915C36.6423 65.6224 36.5611 66.1063 36.5611 66.6432C36.5611 67.1868 36.6439 67.6806 36.8097 68.1248C36.9787 68.5656 37.2273 68.9169 37.5554 69.1788C37.8868 69.4373 38.2978 69.5665 38.7884 69.5665ZM46.3899 66.0069L46.4695 63.8194L44.62 64.9927L44.1428 64.1574L46.0916 63.1432L44.1428 62.129L44.62 61.2938L46.4695 62.4671L46.3899 60.2796H47.3445L47.2649 62.4671L49.1143 61.2938L49.5916 62.129L47.6428 63.1432L49.5916 64.1574L49.1143 64.9927L47.2649 63.8194L47.3445 66.0069H46.3899ZM53.3899 66.0069L53.4695 63.8194L51.62 64.9927L51.1428 64.1574L53.0916 63.1432L51.1428 62.129L51.62 61.2938L53.4695 62.4671L53.3899 60.2796H54.3445L54.2649 62.4671L56.1143 61.2938L56.5916 62.129L54.6428 63.1432L56.5916 64.1574L56.1143 64.9927L54.2649 63.8194L54.3445 66.0069H53.3899Z" fill="black"/>
<defs>
<clipPath id="clip0_821_53936">
<rect width="42" height="25.8462" fill="white" transform="translate(10)"/>
</clipPath>
</defs>
</svg>

<svg width="62" height="71" fill="none" xmlns="http://www.w3.org/2000/svg"><g clip-path="url(#a)"><path d="M48.97 1.01H13.03c-1.12 0-2.02.9-2.02 2.02v19.79c0 1.11.9 2.02 2.02 2.02h35.94c1.12 0 2.02-.9 2.02-2.02V3.02c0-1.1-.9-2.01-2.02-2.01Z" stroke="#000" stroke-width="2.02"/><path d="M16.06 19.79V6.06h4.04l4.03 5.05 4.04-5.05h4.04v13.73h-4.04V11.9l-4.04 5.05-4.03-5.05v7.88h-4.04Zm25.24 0-6.06-6.67h4.04V6.06h4.04v7.06h4.04L41.3 19.8Z" fill="#000"/></g><path d="m4.87 46.46 1.67-10.18h1L5.87 46.46h-1ZM.24 43.64l.16-1H8l-.16 1H.24Zm1.05 2.82 1.67-10.18h1L2.29 46.46h-1ZM.84 40.1l.15-1h7.6l-.16 1H.83ZM14 46.46V36.28h1.24v4.53h5.42v-4.53h1.24v10.18h-1.24v-4.55h-5.42v4.55H14Zm13.4.16a3.27 3.27 0 0 1-3.13-1.86 4.68 4.68 0 0 1-.42-2.06c0-.78.14-1.47.43-2.07a3.23 3.23 0 0 1 3.01-1.9c.4 0 .79.06 1.18.2a2.92 2.92 0 0 1 1.82 1.81 5 5 0 0 1 .28 1.8v.5h-5.89v-1.01h4.7c0-.43-.09-.82-.26-1.16a1.95 1.95 0 0 0-1.83-1.09c-.47 0-.87.12-1.21.35-.34.23-.6.52-.78.9-.19.36-.28.75-.28 1.18v.67c0 .58.1 1.07.3 1.47.2.4.48.7.84.9a2.68 2.68 0 0 0 2.08.19 1.78 1.78 0 0 0 1.08-1.07l1.13.32a2.58 2.58 0 0 1-1.64 1.69c-.42.16-.88.24-1.4.24Zm7.2.02c-.48 0-.92-.1-1.32-.27-.39-.19-.7-.46-.93-.8a2.26 2.26 0 0 1-.35-1.28c0-.43.08-.79.26-1.06.17-.28.4-.5.69-.65.29-.15.6-.27.95-.34.35-.08.7-.15 1.06-.2l1.13-.13c.29-.03.5-.09.64-.16.13-.08.2-.21.2-.4v-.04c0-.49-.14-.87-.4-1.14-.27-.27-.67-.41-1.21-.41a2.1 2.1 0 0 0-1.99 1.15l-1.11-.4a2.67 2.67 0 0 1 1.89-1.63 4.54 4.54 0 0 1 2.01-.06c.33.05.64.17.93.35.3.18.56.45.75.8.2.37.3.85.3 1.46v5.03h-1.17v-1.03h-.06a2.3 2.3 0 0 1-1.14 1.01c-.3.13-.68.2-1.13.2Zm.18-1.05c.47 0 .86-.1 1.17-.28a1.86 1.86 0 0 0 .98-1.61v-1.08c-.05.06-.16.12-.33.17a25.9 25.9 0 0 1-1.7.27c-.3.04-.59.1-.85.2-.27.08-.48.21-.64.39a1 1 0 0 0-.24.7c0 .41.15.72.45.93.3.2.7.3 1.16.3Zm8.35 1.03a2.99 2.99 0 0 1-2.83-1.85c-.28-.6-.41-1.3-.41-2.1s.13-1.5.4-2.1a3.03 3.03 0 0 1 2.85-1.85c.5 0 .9.09 1.19.25.29.17.5.35.66.56.16.2.28.38.36.5h.1v-3.75h1.18v10.18h-1.14V45.3h-.14c-.08.14-.2.31-.36.53-.16.2-.39.4-.68.56-.3.16-.7.24-1.18.24Zm.16-1.05c.47 0 .86-.13 1.19-.37.32-.25.57-.6.74-1.03.17-.44.25-.95.25-1.53a4.3 4.3 0 0 0-.24-1.5 1.96 1.96 0 0 0-1.94-1.37c-.5.01-.92.14-1.25.4-.32.24-.57.59-.74 1.02a4.1 4.1 0 0 0-.24 1.45c0 .55.08 1.04.25 1.48.17.45.42.8.74 1.06.33.26.75.39 1.24.39Zm8.85 1.05a3.27 3.27 0 0 1-3.13-1.86 4.68 4.68 0 0 1-.43-2.06c0-.78.14-1.47.43-2.07a3.23 3.23 0 0 1 3.01-1.9c.4 0 .8.06 1.18.2a2.92 2.92 0 0 1 1.82 1.81 5 5 0 0 1 .28 1.8v.5h-5.88v-1.01h4.69c0-.43-.09-.82-.26-1.16a1.95 1.95 0 0 0-1.83-1.09c-.47 0-.87.12-1.21.35-.34.23-.6.52-.78.9a2.6 2.6 0 0 0-.28 1.18v.67c0 .58.1 1.07.3 1.47.2.4.48.7.84.9.36.21.78.32 1.25.32.3 0 .59-.05.84-.13.25-.1.47-.22.65-.4.18-.18.32-.4.42-.67l1.13.32a2.58 2.58 0 0 1-1.64 1.69c-.42.16-.88.24-1.4.24Zm4.95-.16v-7.63h1.13v1.15h.08c.14-.38.4-.69.76-.92.36-.24.77-.35 1.23-.35a13.1 13.1 0 0 1 .62.02v1.19a3.52 3.52 0 0 0-.72-.08c-.37 0-.7.08-1 .23a1.72 1.72 0 0 0-.93 1.56v4.83H57.1ZM3.02 66.01l.08-2.2L1.25 65l-.47-.83 1.94-1.02-1.94-1.01.47-.84 1.85 1.18-.08-2.19h.96l-.08 2.19 1.85-1.18.47.84-1.94 1.01 1.94 1.02-.47.83-1.85-1.17.08 2.19h-.96Zm7 0 .08-2.2L8.25 65l-.47-.83 1.94-1.02-1.94-1.01.47-.84 1.85 1.18-.08-2.19h.96l-.08 2.19 1.85-1.18.47.84-1.94 1.01 1.94 1.02-.47.83-1.85-1.17.08 2.19h-.96Zm5.21 4.45V60.28h1.18v3.76h.1l.35-.5c.16-.22.38-.4.67-.57.3-.16.69-.24 1.18-.24a3.03 3.03 0 0 1 2.85 1.85c.28.59.41 1.28.41 2.08 0 .81-.13 1.51-.4 2.1a2.99 2.99 0 0 1-2.83 1.85 2.4 2.4 0 0 1-1.19-.23 2.45 2.45 0 0 1-.68-.56 7.53 7.53 0 0 1-.36-.53h-.14v1.17h-1.14Zm1.16-3.82c0 .58.08 1.09.25 1.53.17.44.42.78.74 1.03.33.24.72.37 1.2.37s.9-.13 1.22-.4c.33-.25.58-.6.75-1.05.17-.44.25-.93.25-1.48 0-.53-.08-1.02-.25-1.45-.16-.43-.4-.78-.74-1.03a1.96 1.96 0 0 0-1.24-.38 1.96 1.96 0 0 0-1.94 1.37c-.16.42-.24.92-.24 1.5Zm10.48 3.98a3.2 3.2 0 0 1-1.81-.5 3.34 3.34 0 0 1-1.22-1.37 4.66 4.66 0 0 1-.43-2.07c0-.8.15-1.49.43-2.08a3.3 3.3 0 0 1 3.03-1.88 3.3 3.3 0 0 1 3.02 1.87c.3.6.44 1.3.44 2.1a4.5 4.5 0 0 1-.44 2.06 3.3 3.3 0 0 1-1.2 1.38 3.3 3.3 0 0 1-1.82.5Zm0-1.05c.53 0 .96-.14 1.3-.4.33-.27.58-.63.74-1.07a4.1 4.1 0 0 0 0-2.85 2.4 2.4 0 0 0-.75-1.06 2 2 0 0 0-1.29-.41 2 2 0 0 0-1.3.4 2.4 2.4 0 0 0-.74 1.08 4.1 4.1 0 0 0-.25 1.42c0 .51.09.99.25 1.42.16.44.41.8.75 1.06.34.27.77.4 1.3.4Zm5.25-9.29h1.18v8.2c0 .36.04.62.12.77.08.15.25.22.51.22a2.28 2.28 0 0 0 .5-.08l.24 1.01a3.03 3.03 0 0 1-.88.12c-.55 0-.97-.15-1.25-.46a1.8 1.8 0 0 1-.42-1.27v-8.51Zm6.5 10.34a2.99 2.99 0 0 1-2.82-1.85c-.27-.6-.41-1.3-.41-2.1s.14-1.5.41-2.1a3.03 3.03 0 0 1 2.85-1.85c.5 0 .89.09 1.18.25.29.17.51.35.66.56a9 9 0 0 1 .37.5h.1v-3.75h1.17v10.18H41V69.3h-.14l-.37.53c-.16.2-.39.4-.68.56-.3.16-.69.24-1.18.24Zm.17-1.05a2 2 0 0 0 1.2-.37c.32-.25.56-.6.73-1.03.17-.44.26-.95.26-1.53 0-.57-.09-1.07-.25-1.5a1.96 1.96 0 0 0-1.94-1.37 2 2 0 0 0-1.24.4c-.33.24-.58.59-.75 1.02a4.1 4.1 0 0 0-.24 1.45c0 .55.08 1.04.25 1.48.17.45.42.8.75 1.06s.74.39 1.23.39Zm7.6-3.56.08-2.2L44.62 65l-.48-.83 1.95-1.02-1.95-1.01.48-.84 1.85 1.18-.08-2.19h.95l-.08 2.19 1.85-1.18.48.84-1.95 1.01 1.95 1.02-.48.83-1.85-1.17.08 2.19h-.95Zm7 0 .08-2.2L51.62 65l-.48-.83 1.95-1.02-1.95-1.01.48-.84 1.85 1.18-.08-2.19h.95l-.08 2.19 1.85-1.18.48.84-1.95 1.01 1.95 1.02-.48.83-1.85-1.17.08 2.19h-.95Z" fill="#000"/><defs><clipPath id="a"><path fill="#fff" transform="translate(10)" d="M0 0h42v25.85H0z"/></clipPath></defs></svg>
